X:1
T:Sur la verdure
T:Sur la verdure
T:Jacobus Clemens non papa
T:Source : Second Livre de Chansons à 4 parties---Paris---N.du Chemin---1549. Editor : André Vierendeels (15/12/14).
C:Jacobus Clemens non papa
%%score [ 1 2 3 4 ]
L:1/8
Q:1/4=90
M:2/2
K:F
V:1 treble nm="Superius" snm="S"
V:2 treble nm="Altus" snm="A"
V:3 treble-8 nm="Tenor" snm="T"
V:4 bass nm="Bassus" snm="B"
V:1
 f2 ec d2 d2 | cdcB c2 z2 | z4 ABAG | A4 f2 ec | d2 d2 cdcB | c8 | c2 cc G2 c2 | BABc d4 | %8
w: Sur la ver- du- re|du pré flo- ris- sant,|du- pré flo- ris-|sant, sur la ver-|du- re du pré flo- ris-|sant,|m'a- my- e'ou- y chan-|ter, dan- cer, et ri-|
 c4 A2 AA | c2 c2 BBBB | c2 A2 f2 ff | (3:2:2c4 d2 eeee | d2 c4 B2 | c4 z2 d2 | d6 c2 | %15
w: re, m'a- my- e'ou-|y chan- tern dan- cer, et|ri- re, m'a my- e'ou-|y chan- ter, dan- cer, et|ri- * *|re, O,|quel dou-|
 B2 B2 A2 d2 | d2 c2 B4 | Acde f4 | z8 | c2 de f2 e2 | ddcB A2 f2 | e2 d4 c2- | %22
w: leur s'e- tit, O|quel mar- ti-|re, quant vis qu'aul- tre,||quant vis qu'aul- tre d'el-|l'es- toit jou- is- sant, d'el-|l'es- toit jou-|
"^-natural" c2 B2 c4 | c2 cc B4 | A8 |] %25
w: * is- sant,|sur le ver- du-|re|
V:2
 F2 GA B2 B2 | FBAG A2 z2 | z2 F3 FFD | F4 A2 GG | B2 B2 ABAG | A4 z2 A2 | AA G2 z2 G2 | %7
w: Sur nla ver- du- re|du pré flo- ris- sant,|du pré flo- ris-|sant, sur la ver-|du- re du pré flo- ris-|sant, m'a-|my- e'ou- y chan-|
 GGGG F2 D2 | A2 AA F2 F2 | G2 G2 G2 G2 | E2 F2 z2 A2 | A2 A2 G2 B2 | BA GF G4 | G4 z2 B2 | B6 A2 | %15
w: ter, dan- cer, et ri- re,|m'a- my- e'ou- y chan-|ter, dan- cer, et|ri- re, chan-|ter, dan- cer et|ri- * * * *|re, O,|quel dou-|
 G2 G2 F2 A2 | A2 A2 F4 | F4 F2 FG | A2 G2 FGFE | F4 z2 G2 | BBAG C2 A2 | G2 B2 A4 | G8 | %23
w: leur s'e- tit, O,|quel mar- ti-|re, quant vis qu'aul-|tre d'el- l'es- toit jou- is-|* quant|vis qu'aul- tre d'el- l'es- toit|jou- * is-|sant,|
 A2 AA F4 | F8 |] %25
w: sur la ver- du-|re.|
V:3
 z8 | z4 f2 ec | d2 d2 cdcB | c4 c2 ee | g2 f2 fffd | f4 f2 ff | (3:2:2c4 d2 eeee | d2 B2 z2 f2 | %8
w: |Sur la ver-|du- re du pré flo- ris-|sant, sur la ver-|du- re du pré flo- ris-|sant, m'a- my- e'ou-|y chan- ter, dan- cer, et|ri- re, m'a-|
 f2 f2 (3:2:2c4 d2 | eeee d4 | c4 d2 dd | e2 f2 e2 g2 | f2 e2 d4 | c4 z2 f2 | f6 f2 | d2 d2 d2 f2 | %16
w: my- e'ou- y chan-|ter, dan- cer, et ri-|re, m'a- my- e'ou-|y chan- ter, dan-|cer, et ri-|re, O,|quel dou-|leur s'e- tit, O,|
 f2 e2 d4 | c2 z2 c2 de | f2 e2 ddcB | A2 z G ABcg | gffd f2 c2 | c2 d2 (3:2:2f4 e2 | d2 d2 c4 | %23
w: quel mar- ti-|re, quant vis qu'aul-|tre d'el- l'es- toit jou- is-|sant, quant vis qu'un aul- tre|d'el- l'es- toit jou- is- sant,|jou- * * *|* is sant,|
 f2 ec d4 | c8 |] %25
w: sur le ver- du-|re.|
V:4
 z8 | z4 F,2 G,A, | B,2 B,2 F,D,F,G, | F,4 F,2 CC | G,2 B,2 F,B,F,G, | F,8 | z4 C2 CC | %7
w: |Sur la ver-|du- re du pré flo- ris-|sant, sur la ver-|du- re du pré flo- ris-|sant,|m'a- my- e'ou-|
 (3:2:2G,4 A,2 B,B,B,B, | A,2 F,2 F,2 F,F, | C,3 C, G,G,G,G, | A,2 F,2 z2 D,2 | %11
w: y chan- ter, dan- cer, et|ri- re, m'a- my- e'ou-|y chan- ter, dan- cer, et|ri- re, chan-|
 (3:2:2A,4 B,2 C2 G,2 | B,2 C2 G,4 | C,4 z2 B,,2 | B,,6 F,2 | G,2 G,2 D,2 D,2 | A,2 A,2 B,4 | F,8 | %18
w: ter, dan- cer, et|ri- * *|re, O,|quel dou-|leur s'e- tit, O,|quel mar- ti-|re,|
 F,2 G,A, B,2 A,2 | F,G,F,E, D,2 C,2 | G,B,F,G, F,3 E, | C,2 G,2 A,2 F,2 | G,4 z4 | F,2 A,A, B,4 | %24
w: quant vis qu'aul- tre d'el-|l'es- toit jou- is- sant, quant|vis qu'aul- tre d'el- l'es- toit|jou- * * is-|sant,|sur la ver- du-|
 F,8 |] %25
w: re|

